X:473
T: "Taendelei"
N: Z1153
O: Europa, Mitteleuropa, Deutschland, Niederrhein
R: Liebes - Lied
M: 4/4
L: 1/8
K: G
 | G3A_B2AG | A2d2G4 |
_B3cd2cd | _e2d2c2
c_B | A3_Bc2c2 | d2c_BA2
BA | G2G2d2d2 | G4z4

@@@ Tune index: 10231
